X:19
T:My Darling Asleep
M:6/8
Q:3/8=120
R:jig
K:D
e|"D"fdd "A"cAA|"G"BAG "A"A2G|"D"FAA def|"Em"gfg eag|
"D"fdd "A"cAA|"G"BAG A2G|"D"FAA def|"A" gec "D"d2::G |"D"FAA
"G"BGG|"D"FAA "G"BGG|"D"FAA def|"Em"gfg eag|
"D"fdd "A"cAA|"G"BAG A2G|"D"FAA def|"A" gec "D"d2:|
